X:1374
T:The Dublin Reel
R:Reel
N:Collected by Delaney
B:O'Neill's 1374
Z:Transcribed by Trish O'Neil
M:C|
L:1/8
K:D
dF {G}(3FEF dfec|dF {G}(3FEF AFEF|dF {G}(3FEF dfed|1cABG AFEA:|2cABc ABcd||
e2(3cBA EAcf|(3efe dA BF {G}(3FEF|e2(3cBA EAcA|(3Bcd cA BG {G}(3FEF|
e2(3cBA ecfc|eAcA BF {G}(3FEF|d3c dfed|cABG AFEA|
d3c dAFA|dcdB AFEA|d2(dc) dfed|cABc AFEA|
 d3c dAFA|dcdB AFEA|{e}dcdfe2(ae)|fdBc dfec|]


